X: 10581
T: Dot's
R: polka
M: 2/4
K: Amajor
|:E>A ce|cB BA|EA FE|FE FA|
E>A ce|cB BA|EA FE|FA A2:|
|:c>B Af|ea fe|ce B>c|BA F2|
c>B Af|ea fe|ce B>c|BA A2:|

